X: 941
T: Sugar Hill
B: jims roots
M:C|
L:1/8
R: Reel
Q: 1/4=100
K:D
V:1 
%S:Brad Leftwich
%N:From a transcription by John Lamancusa, by permission  http://www.mne.psu.edu/lamancusa/tunes.htm
%Z:AK/Fiddler's Companion
"D"(a2|:a)bag fede|fd"A"ec d2"D"(a2|a)bag fedc|"G"B2 Bd B2"D"(a2|
a)bag fede|fd"A"ec "D"d3e|fedc "G"BABc|[1 "D"d4 d2a2:|[2 "D"d4 d2 Bc||
|: "D"dcBc d3c|dfec d2 Bc|dcde fe d2|"G"B3c B2 Bc|
"D"dcBc d2 ge|fdBc d2 ge|fedc "G"BABc|[1 "D"d4 d2Bc:|[2 "D"d4 d4||
% abcbook-tune_id 6298c29723c08e339cf63e80


% abcbook-boost 0
% abcbook-tablature 
% abcbook-transpose 
% abcbook-lastupdated 1654178455611
% abcbook-soundfonts 
% abcbook-repeats 1


